shared/images/iconfont/kb-iconfont-proof-placeholder-24.svg

<?xml version="1.0" encoding="UTF-8"?>
<svg width="24px" height="24px" viewBox="0 0 24 24" version="1.1" xmlns="http://www.w3.org/2000/svg" xmlns:xlink="http://www.w3.org/1999/xlink">
    <!-- Generator: sketchtool 41.2 (35397) - http://www.bohemiancoding.com/sketch -->
    <title>4428A188-EBC1-48C4-A05D-0C4F9DEE01C7</title>
    <desc>Created with sketchtool.</desc>
    <defs></defs>
    <g id="Icons" stroke="none" stroke-width="1" fill="none" fill-rule="evenodd">
        <g id="Style-guide---Desktop---Icons-2" transform="translate(-90.000000, -1028.000000)">
            <g id="kb-iconfont-proof-placeholder-24" transform="translate(90.000000, 1028.000000)">
                <rect id="icon-area" fill="#D8D8D8" opacity="0" x="0" y="0" width="24" height="24"></rect>
                <path d="M15.8916166,21.1650004 L13.7521187,20.2382279 C13.3896356,20.081027 12.9706039,20.1318054 12.6567297,20.3705489 L10.8061609,21.7790723 C10.2644184,22.1913327 9.47888321,22.0110904 9.17102474,21.4034647 L8.11305317,19.314906 C7.93540623,18.9640758 7.58174153,18.7356779 7.18811927,18.7176616 L4.87161602,18.6122838 C4.19137262,18.5812194 3.70491895,17.9433118 3.85698411,17.2823787 L4.38403881,14.9953114 C4.47147689,14.6153874 4.34792611,14.2173437 4.06019942,13.9526701 L2.3577015,12.3873686 C1.85888841,11.9288229 1.89649578,11.1330111 2.43586376,10.7250184 L4.31139802,9.30602056 C4.6201918,9.07245442 4.78068324,8.69248905 4.73255725,8.30852534 L4.44538229,6.01415738 C4.36177376,5.34606286 4.90244768,4.76473719 5.57766227,4.79772344 L7.92316084,4.9112792 C8.30879356,4.93001539 8.67498554,4.74411363 8.88598157,4.42222548 L10.1618637,2.47843024 C10.5308513,1.9160792 11.3195988,1.82092423 11.814864,2.27892796 L13.5264968,3.86220641 C13.8100379,4.12412385 14.2109219,4.21764578 14.5806234,4.1074702 L16.829515,3.43910881 C17.4764862,3.24670848 18.1428257,3.68189562 18.2245963,4.35072366 L18.5050325,6.64573797 C18.5519077,7.0297752 18.8002376,7.36031299 19.1567229,7.51386346 L21.3226899,8.44445901 C21.9460224,8.71242086 22.1760532,9.47573629 21.8032875,10.0399357 L20.532718,11.9639038 C20.3175353,12.2891655 20.2944148,12.7047133 20.4720112,13.0526693 L21.5406513,15.1473559 C21.8496078,15.7524152 21.5324835,16.4872253 20.8798457,16.6793333 L18.6575285,17.3327473 C18.2801182,17.4441266 17.9922939,17.7495153 17.9052892,18.1324161 L17.3873995,20.4113138 C17.2364571,21.0741825 16.5181648,21.4362759 15.8916166,21.1650004" id="Combined-Shape" fill="#000000"></path>
            </g>
        </g>
    </g>
</svg>

<svg xmlns="http://www.w3.org/2000/svg" width="24" height="24" viewBox="0 0 24 24">
    <path fill="#000" fill-rule="evenodd" d="M15.892 21.165l-2.14-.927a1.092 1.092 0 0 0-1.095.133l-1.85 1.408a1.093 1.093 0 0 1-1.636-.376l-1.058-2.088a1.093 1.093 0 0 0-.925-.597l-2.316-.106a1.09 1.09 0 0 1-1.015-1.33l.527-2.287a1.086 1.086 0 0 0-.324-1.042l-1.702-1.566a1.083 1.083 0 0 1 .078-1.662L4.31 9.306c.31-.234.47-.614.422-.997l-.288-2.295a1.085 1.085 0 0 1 1.133-1.216l2.345.113c.386.019.752-.167.963-.489l1.276-1.944a1.092 1.092 0 0 1 1.653-.2l1.711 1.584c.284.262.685.356 1.055.245l2.249-.668a1.092 1.092 0 0 1 1.395.912l.28 2.295c.047.384.295.714.652.868l2.166.93c.623.268.853 1.032.48 1.596l-1.27 1.924c-.215.325-.239.74-.061 1.089l1.069 2.094a1.083 1.083 0 0 1-.661 1.532l-2.222.654a1.085 1.085 0 0 0-.753.8l-.518 2.278a1.089 1.089 0 0 1-1.495.754"/>
</svg>
